_includes/icons/color-xls.svg

<svg fill="#666" height="50" viewBox="0 0 48 48" width="50" xmlns="http://www.w3.org/2000/svg"><path d="m40 45h-32v-42h22l10 10z" fill="#388e3c"/><path d="m38.5 14h-9.5v-9.5z" fill="#e8f5e9"/><path d="m23.738281 26.457031 2.09375-4.253906h3.523438l-3.578125 6.347656 3.675781 6.449219h-3.5625l-2.152344-4.332031-2.152343 4.332031h-3.550782l3.664063-6.449219-3.566406-6.347656h3.515625z" fill="#fff"/></svg>

<svg xmlns="http://www.w3.org/2000/svg" viewBox="0 0 48 48" width="50" height="50" fill="#666"><path d="M 40 45 L 8 45 L 8 3 L 30 3 L 40 13 Z" fill="#388e3c"/><path d="M 38.5 14 L 29 14 L 29 4.5 Z" fill="#e8f5e9"/><path d="M 23.738281 26.457031 L 25.832031 22.203125 L 29.355469 22.203125 L 25.777344 28.550781 L 29.453125 35 L 25.890625 35 L 23.738281 30.667969 L 21.585938 35 L 18.035156 35 L 21.699219 28.550781 L 18.132813 22.203125 L 21.648438 22.203125 Z" fill="#fff"/></svg>
